X:150
T:Green Hills Of Tyrol. RHu.146
S:R.Hughes MS,1823,Whitchurch,Shrops.
A:Whitchurch, Shropshire
Z:Tony Weatherall 2006
M:3/4
L:1/8
Q:3/4=60
R:Air
K:G
DGA|B2-BGBc|d2deBe|(dc)AFAe|dBGDGA|!
B2-BGBc|d2-deBe|(dc)ADFA|G2-G2zG||!
g4 fe|(ed)dze2|(dc)czd2|(cB)BzG2|!
g4fe|(ed)dze2|d^c=c zBA|d2zAfA|!
e2-eA^cA|d2-dAfA|e2-eA^cA|d2z DGA||!
B2-BGBc|d2-deBe|(dc)AFAc|dBGDGA|!
B2-BGBc|d2-deBe|(dc)AFAc|G2zFGA||!
B2-BFdF|B2-BcBA|G2GDBD|G2z FGA|!
B2-BFdF|B2zcBA|G2GDBD|G2GzG2||!
g4fe|(ed)d ze2|(dc)c zd2|(cB)B zGG|!
g2f2e2|(ed)d ze2|d^ccd2|g2z2z2|]

